X: 6
T:Glenmore Hunt (#206), The
M:4/4
L:1/8
S:O'Farrell's Pocket Companion 1804-10
R:Reel
K:G
GA|B2 AG "tr"E2 D2|EAAB A2 GA|B2 AG "tr"E2 D2|EGGA G2 A2|
B2 AG "tr"E2 D2|EAAB A2 GA|BABG E2 D2|EGGA G2||
BA|G2 GB d2 d2|e2 ef e3 d|gfed cBAG|B2 A2 A2 GA|
BABG "tr"E2 D2|EAAB A2 GA|cBAG "tr"E2 D2|EGGA G2||

